assets/images/order-svg1.svg

<svg width="70" height="70" viewBox="0 0 70 70" fill="none" xmlns="http://www.w3.org/2000/svg">
<circle cx="35" cy="35" r="35" fill="#323750"/>
<path d="M44.8861 18H24.2444C23.0048 18 22 19.0048 22 20.2444V49.7556C22 50.9952 23.0048 52 24.2444 52H44.8861C46.1256 52 47.1304 50.9952 47.1304 49.7556V20.2444C47.1304 19.0048 46.1256 18 44.8861 18ZM25.5629 43.3973V40.2045C25.5629 39.9494 25.7696 39.7427 26.0247 39.7427H29.2175C29.4725 39.7427 29.6793 39.9494 29.6793 40.2045V43.3973C29.6793 43.6523 29.4725 43.8591 29.2175 43.8591H26.0247C25.7696 43.8591 25.5629 43.6523 25.5629 43.3973ZM25.5629 36.9668V33.7741C25.5629 33.519 25.7696 33.3123 26.0247 33.3123H29.2175C29.4725 33.3123 29.6793 33.519 29.6793 33.7741V36.9668C29.6793 37.2219 29.4725 37.4286 29.2175 37.4286H26.0247C25.7696 37.4286 25.5629 37.2218 25.5629 36.9668ZM40.3963 49.1174H28.7341C27.9177 49.1174 27.2559 48.4556 27.2559 47.6391C27.2559 46.8227 27.9177 46.1609 28.7341 46.1609H40.3963C41.2127 46.1609 41.8745 46.8227 41.8745 47.6391C41.8745 48.4556 41.2127 49.1174 40.3963 49.1174ZM32.9688 39.7426H36.1616C36.4167 39.7426 36.6234 39.9494 36.6234 40.2044V43.3972C36.6234 43.6523 36.4167 43.859 36.1616 43.859H32.9688C32.7138 43.859 32.507 43.6523 32.507 43.3972V40.2044C32.507 39.9494 32.7138 39.7426 32.9688 39.7426ZM32.507 36.9668V33.7741C32.507 33.519 32.7138 33.3123 32.9688 33.3123H36.1616C36.4167 33.3123 36.6234 33.519 36.6234 33.7741V36.9668C36.6234 37.2219 36.4167 37.4286 36.1616 37.4286H32.9688C32.7138 37.4286 32.507 37.2218 32.507 36.9668ZM43.1057 43.8591H39.913C39.6579 43.8591 39.4512 43.6523 39.4512 43.3973V40.2045C39.4512 39.9494 39.6579 39.7427 39.913 39.7427H43.1057C43.3608 39.7427 43.5675 39.9494 43.5675 40.2045V43.3973C43.5675 43.6523 43.3608 43.8591 43.1057 43.8591ZM43.1057 37.4286H39.913C39.6579 37.4286 39.4512 37.2219 39.4512 36.9668V33.7741C39.4512 33.519 39.6579 33.3123 39.913 33.3123H43.1057C43.3608 33.3123 43.5675 33.519 43.5675 33.7741V36.9668C43.5675 37.2219 43.3608 37.4286 43.1057 37.4286ZM43.7304 29.0601C43.7304 29.9322 43.0235 30.6391 42.1514 30.6391H26.9791C26.107 30.6391 25.4 29.9322 25.4 29.0601V22.6094C25.4 21.7374 26.107 21.0304 26.9791 21.0304H42.1514C43.0235 21.0304 43.7304 21.7374 43.7304 22.6094V29.0601Z" fill="white"/>
</svg>

<svg width="70" height="70" fill="none" xmlns="http://www.w3.org/2000/svg"><circle cx="35" cy="35" r="35" fill="#323750"/><path d="M44.886 18H24.244A2.244 2.244 0 0 0 22 20.244v29.512A2.244 2.244 0 0 0 24.244 52h20.642a2.244 2.244 0 0 0 2.244-2.244V20.244A2.244 2.244 0 0 0 44.886 18ZM25.563 43.397v-3.192c0-.256.207-.462.462-.462h3.193c.255 0 .461.206.461.462v3.192a.462.462 0 0 1-.461.462h-3.193a.462.462 0 0 1-.462-.462Zm0-6.43v-3.193c0-.255.207-.462.462-.462h3.193c.255 0 .461.207.461.462v3.193a.462.462 0 0 1-.461.462h-3.193a.462.462 0 0 1-.462-.462Zm14.833 12.15H28.734a1.478 1.478 0 0 1 0-2.956h11.662a1.478 1.478 0 1 1 0 2.956Zm-7.427-9.374h3.193c.255 0 .461.206.461.461v3.193a.462.462 0 0 1-.461.462h-3.193a.462.462 0 0 1-.462-.462v-3.193c0-.255.207-.461.462-.461Zm-.462-2.776v-3.193c0-.255.207-.462.462-.462h3.193c.255 0 .461.207.461.462v3.193a.462.462 0 0 1-.461.462h-3.193a.462.462 0 0 1-.462-.462Zm10.599 6.892h-3.193a.462.462 0 0 1-.462-.462v-3.192c0-.256.207-.462.462-.462h3.193c.255 0 .462.206.462.462v3.192a.462.462 0 0 1-.462.462Zm0-6.43h-3.193a.462.462 0 0 1-.462-.462v-3.193c0-.255.207-.462.462-.462h3.193c.255 0 .462.207.462.462v3.193a.462.462 0 0 1-.462.462Zm.624-8.369c0 .872-.706 1.58-1.579 1.58H26.98c-.872 0-1.579-.708-1.579-1.58v-6.45a1.58 1.58 0 0 1 1.58-1.58H42.15c.872 0 1.58.707 1.58 1.58v6.45Z" fill="#fff"/></svg>
